dist/img/icons/specialty/3.svg

<svg width="64" height="64" viewBox="0 0 64 64" fill="none" xmlns="http://www.w3.org/2000/svg">
<path d="M32.0004 4C32.9682 4 33.9353 4.04943 34.8981 4.14807L35.1027 2.15857C32.3447 1.87559 29.561 1.9717 26.8291 2.44421L27.1716 4.41467C28.7664 4.1385 30.3819 3.99977 32.0004 4Z" fill="#F1B08D"/>
<path d="M15.587 9.31237L14.4133 7.69299C10.5673 10.4722 7.43632 14.1251 5.27823 18.351C3.12014 22.5769 1.9966 27.2549 2.00012 32C1.98703 36.6155 3.04981 41.1705 5.10412 45.3037L6.89612 44.4158C4.97924 40.5584 3.98768 36.3074 4.00012 32C3.99655 27.5709 5.04519 23.2044 7.05966 19.2599C9.07412 15.3155 11.9968 11.9061 15.587 9.31237Z" fill="#F1B08D"/>
<path d="M32.9663 59.9836L33.0339 61.9824C35.8474 61.8887 38.6336 61.3987 41.3102 60.527L40.69 58.6256C38.1921 59.439 35.5919 59.8962 32.9663 59.9836Z" fill="#F1B08D"/>
<path d="M14 31H16V54H14V31Z" fill="#F1B08D"/>
<path d="M20 31H22V54H20V31Z" fill="#F1B08D"/>
<path d="M26 31H28V54H26V31Z" fill="#F1B08D"/>
<path d="M61.4335 32.9651L43.4101 24.2954C42.6929 23.9515 41.8686 23.9061 41.118 24.1691C40.3674 24.4322 39.7518 24.9822 39.4062 25.6986L34 36.9378V27C33.9985 25.6744 33.4712 24.4035 32.5339 23.4661C31.5965 22.5288 30.3256 22.0015 29 22H25V6C25 4.93913 24.5786 3.92172 23.8284 3.17157C23.0783 2.42143 22.0609 2 21 2C19.9391 2 18.9217 2.42143 18.1716 3.17157C17.4214 3.92172 17 4.93913 17 6V22H13C11.6744 22.0015 10.4035 22.5288 9.46613 23.4661C8.52877 24.4035 8.00151 25.6744 8 27V53C8.00122 54.0269 8.3181 55.0287 8.9077 55.8695C9.4973 56.7104 10.3311 57.3496 11.2962 57.7007C11.0821 58.1457 10.9812 58.6366 11.0024 59.13C11.0236 59.6233 11.1662 60.1038 11.4176 60.5288C11.669 60.9538 12.0214 61.3102 12.4436 61.5663C12.8658 61.8225 13.3446 61.9704 13.8377 61.9971C14.3308 62.0238 14.8228 61.9284 15.2702 61.7193C15.7175 61.5102 16.1063 61.1939 16.4021 60.7985C16.6979 60.4031 16.8916 59.9408 16.9659 59.4526C17.0401 58.9645 16.9928 58.4655 16.828 58H25.172C25.0074 58.4654 24.9601 58.9643 25.0345 59.4523C25.1089 59.9404 25.3025 60.4025 25.5983 60.7978C25.8941 61.193 26.2828 61.5092 26.7301 61.7182C27.1773 61.9272 27.6693 62.0226 28.1622 61.9959C28.6552 61.9693 29.1339 61.8213 29.556 61.5653C29.9781 61.3092 30.3305 60.953 30.5819 60.5281C30.8333 60.1032 30.9759 59.6229 30.9972 59.1297C31.0185 58.6365 30.9177 58.1456 30.7038 57.7007C31.4899 57.4138 32.1918 56.9349 32.7455 56.3075C33.2993 55.6801 33.6874 54.9243 33.8746 54.1086L47.9958 60.9011C48.1142 60.9582 48.2426 60.9913 48.3737 60.9987C48.5049 61.006 48.6362 60.9875 48.7601 60.944C48.8841 60.9006 48.9983 60.8331 49.0962 60.7455C49.194 60.6579 49.2737 60.5519 49.3305 60.4335L61.9012 34.2997C62.0161 34.0607 62.0314 33.7858 61.9437 33.5355C61.856 33.2852 61.6725 33.08 61.4335 32.9651ZM42.1114 25.9991C42.2609 25.9991 42.4085 26.0328 42.5432 26.0978L59.6653 34.3339L58.7984 36.1362L41.6762 27.9003C41.4376 27.7851 41.2544 27.5801 41.1666 27.3301C41.0789 27.0801 41.0938 26.8056 41.2081 26.5666L41.2086 26.5656L41.2085 26.5655C41.2904 26.3957 41.4186 26.2524 41.5784 26.1523C41.7381 26.0521 41.9228 25.999 42.1114 25.9991ZM19 6C19 5.46957 19.2107 4.96086 19.5858 4.58579C19.9609 4.21071 20.4696 4 21 4C21.5304 4 22.0391 4.21071 22.4142 4.58579C22.7893 4.96086 23 5.46957 23 6V22H19V6ZM15 59C15 59.1978 14.9414 59.3911 14.8315 59.5556C14.7216 59.72 14.5654 59.8482 14.3827 59.9239C14.2 59.9996 13.9989 60.0194 13.8049 59.9808C13.6109 59.9422 13.4327 59.847 13.2929 59.7071C13.153 59.5673 13.0578 59.3891 13.0192 59.1951C12.9806 59.0011 13.0004 58.8 13.0761 58.6173C13.1518 58.4346 13.28 58.2784 13.4444 58.1685C13.6089 58.0586 13.8022 58 14 58C14.2651 58.0003 14.5193 58.1058 14.7068 58.2932C14.8942 58.4807 14.9997 58.7349 15 59ZM28 60C27.8022 60 27.6089 59.9414 27.4444 59.8315C27.28 59.7216 27.1518 59.5654 27.0761 59.3827C27.0004 59.2 26.9806 58.9989 27.0192 58.8049C27.0578 58.6109 27.153 58.4327 27.2929 58.2929C27.4327 58.153 27.6109 58.0578 27.8049 58.0192C27.9989 57.9806 28.2 58.0004 28.3827 58.0761C28.5654 58.1518 28.7216 58.28 28.8315 58.4444C28.9414 58.6089 29 58.8022 29 59C28.9997 59.2651 28.8942 59.5193 28.7068 59.7068C28.5193 59.8942 28.2651 59.9997 28 60ZM29 56H13C12.2046 55.9991 11.4421 55.6827 10.8797 55.1203C10.3173 54.5579 10.0009 53.7954 10 53V27C10.0009 26.2046 10.3173 25.4421 10.8797 24.8797C11.4421 24.3173 12.2046 24.0009 13 24H17V29H19V24H23V29H25V24H29C29.7954 24.0009 30.5579 24.3173 31.1203 24.8797C31.6827 25.4421 31.9991 26.2046 32 27V41.0957L28.5694 48.2278C28.3986 48.5828 28.2994 48.968 28.2775 49.3614C28.2556 49.7547 28.3114 50.1485 28.4417 50.5203C28.572 50.8921 28.7742 51.2346 29.0369 51.5283C29.2995 51.8219 29.6174 52.0609 29.9725 52.2317L31.9923 53.2032C31.94 53.9615 31.6022 54.6718 31.0469 55.1908C30.4915 55.7098 29.7601 55.999 29 56ZM47.9616 58.6654L30.8394 50.4294C30.6004 50.3145 30.4169 50.1092 30.3292 49.8589C30.2415 49.6086 30.2568 49.3337 30.3718 49.0947L39.9827 29.114C40.2226 29.3559 40.5022 29.555 40.8093 29.7025L57.9315 37.9385L47.9616 58.6654Z" fill="#F1B08D"/>
<path d="M48.0531 35.4061C46.8055 34.8061 45.408 34.5895 44.0373 34.7837C42.6667 34.9779 41.3843 35.5742 40.3525 36.4971C39.3207 37.4201 38.5857 38.6283 38.2406 39.969C37.8954 41.3097 37.9556 42.7226 38.4134 44.029C38.8712 45.3355 39.7062 46.4769 40.8127 47.3089C41.9192 48.1408 43.2475 48.626 44.6298 48.703C46.012 48.7801 47.3861 48.4455 48.5781 47.7416C49.7702 47.0378 50.7268 45.9962 51.327 44.7487C52.1296 43.0753 52.2357 41.1519 51.6219 39.4004C51.0081 37.649 49.7247 36.2125 48.0531 35.4061ZM49.8674 42.937L48.0746 42.0746C48.4752 40.9693 48.6719 39.8005 48.6552 38.625L48.6499 38.2785C49.2272 38.8906 49.6412 39.6381 49.854 40.4521C50.0667 41.2662 50.0714 42.1207 49.8674 42.937V42.937ZM43.6507 44.9022L43.3873 45.1062L43.3822 44.7731C43.3703 43.9082 43.504 43.0475 43.7776 42.2269L45.3931 43.004C44.9228 43.73 44.3338 44.3716 43.6507 44.9022V44.9022ZM44.6445 40.4247C45.1148 39.6987 45.7038 39.057 46.3869 38.5264L46.6504 38.3224L46.6555 38.6555C46.6673 39.5204 46.5337 40.3812 46.26 41.2018L44.6445 40.4247ZM45.0268 36.7146C45.1628 36.7146 45.2993 36.7221 45.4357 36.7334L45.1626 36.9448C44.2338 37.6656 43.4434 38.549 42.83 39.5519L41.0391 38.6904C41.507 38.0765 42.1102 37.5788 42.8018 37.2361C43.4935 36.8934 44.2549 36.715 45.0268 36.7146V36.7146ZM40.1695 40.4914L41.9631 41.3541C41.5625 42.4594 41.3657 43.6281 41.3824 44.8036L41.3878 45.1535C40.8092 44.5414 40.3943 43.7934 40.1814 42.9785C39.9684 42.1636 39.9644 41.3083 40.1695 40.4914ZM44.6011 46.6959L44.8751 46.4838C45.8039 45.763 46.5942 44.8797 47.2076 43.8768L49.0005 44.7393C48.4901 45.4081 47.8196 45.9378 47.0508 46.2797C46.2821 46.6216 45.4397 46.7647 44.6011 46.6959V46.6959Z" fill="#F1B08D"/>
<path d="M35.2847 50.3447L36.1506 48.5428L45.1606 52.8728L44.2947 54.6747L35.2847 50.3447Z" fill="#F1B08D"/>
<path d="M45.2071 15.7928C44.6212 15.2084 43.8275 14.8802 43 14.8802C42.1725 14.8802 41.3788 15.2084 40.7929 15.7928C40.5824 16.0028 40.2973 16.1207 40 16.1207C39.7027 16.1207 39.4176 16.0028 39.2071 15.7928L38.9571 15.5428C37.6413 14.2301 35.8586 13.4929 34 13.4929C32.1414 13.4929 30.3587 14.2301 29.0429 15.5428C28.7753 15.8119 28.4569 16.0253 28.1062 16.1705C27.7555 16.3158 27.3796 16.39 27 16.389V18.389C27.6423 18.3907 28.2786 18.2651 28.872 18.0193C29.4654 17.7735 30.0041 17.4125 30.4571 16.9571C31.3975 16.0188 32.6716 15.4919 34 15.4919C35.3284 15.4919 36.6025 16.0188 37.5429 16.9571L37.7929 17.2071C38.3788 17.7915 39.1725 18.1197 40 18.1197C40.8275 18.1197 41.6212 17.7915 42.2071 17.2071C42.4175 16.997 42.7027 16.8791 43 16.8791C43.2973 16.8791 43.5825 16.997 43.7929 17.2071L45.636 19.0502C49.2205 22.6546 54.0337 24.7724 59.1127 24.9799C59.5428 26.647 59.8179 28.3502 59.9344 30.0679L61.9298 29.9319C61.6653 25.9689 60.6091 22.099 58.8236 18.5511L57.0364 19.4488C57.6031 20.5776 58.0924 21.7436 58.5011 22.9388C54.1733 22.5954 50.1114 20.7144 47.0502 17.6359L45.2071 15.7928Z" fill="#F1B08D"/>
<path d="M36.4786 6.85327L53.1348 17.0321C53.7088 17.3847 54.385 17.5332 55.0539 17.4537C55.7228 17.3741 56.3453 17.071 56.8206 16.5936L60.7071 12.7071C60.8946 12.5196 61 12.2652 61 12C61 11.7348 60.8946 11.4804 60.7071 11.2928L58.7071 9.29284C58.5436 9.12942 58.3286 9.02767 58.0985 9.00491C57.8685 8.98214 57.6377 9.03976 57.4453 9.16797L55 10.7981L50.4343 7.75427L52.8 4.59997C52.9444 4.4074 53.0145 4.16918 52.9975 3.92907C52.9804 3.68896 52.8773 3.46306 52.7071 3.29284L51.7071 2.29284C51.5587 2.14445 51.3673 2.04651 51.1602 2.0129C50.953 1.9793 50.7405 2.01173 50.5528 2.10559L45.0438 4.8601L43.1925 3.74926C42.2367 3.17433 41.1159 2.936 40.0089 3.07229C38.9018 3.20858 37.8723 3.71163 37.0845 4.50122L36.2929 5.29284C36.1859 5.39982 36.1046 5.52967 36.0551 5.67262C36.0056 5.81557 35.9891 5.96789 36.007 6.11812C36.0249 6.26834 36.0766 6.41255 36.1583 6.53989C36.24 6.66723 36.3495 6.77438 36.4786 6.85327H36.4786ZM42.1635 5.46435L44.4855 6.85754C44.6297 6.94406 44.7935 6.9928 44.9616 6.99925C45.1297 7.00569 45.2967 6.96963 45.4472 6.8944L50.4584 4.38879L48.2 7.40002C48.1184 7.50881 48.0599 7.6331 48.0279 7.76529C47.996 7.89748 47.9914 8.03479 48.0143 8.16883C48.0373 8.30287 48.0874 8.43082 48.1615 8.54485C48.2356 8.65888 48.3322 8.75659 48.4453 8.83202L54.4453 12.832C54.6096 12.9415 54.8026 12.9999 55 12.9999C55.1974 12.9999 55.3904 12.9415 55.5547 12.832L57.8726 11.2867L58.5858 12L55.4063 15.1794C55.2479 15.3386 55.0404 15.4396 54.8175 15.4661C54.5945 15.4926 54.3691 15.4431 54.1778 15.3256L38.6085 5.81103C39.0853 5.37913 39.6884 5.11221 40.3287 5.04977C40.9689 4.98734 41.6123 5.1327 42.1635 5.46435Z" fill="#F1B08D"/>
</svg>

<svg width="64" height="64" fill="none" xmlns="http://www.w3.org/2000/svg"><path d="M32 4c.968 0 1.935.05 2.898.148l.205-1.99a30.362 30.362 0 00-8.274.286l.343 1.97A28.276 28.276 0 0132 4zM15.587 9.312l-1.174-1.619A29.962 29.962 0 002 32a29.701 29.701 0 003.104 13.304l1.792-.888A27.72 27.72 0 014 32 27.961 27.961 0 0115.587 9.312zm17.379 50.672l.068 1.998c2.813-.093 5.6-.583 8.276-1.455l-.62-1.901a27.948 27.948 0 01-7.724 1.358zM14 31h2v23h-2V31zm6 0h2v23h-2V31zm6 0h2v23h-2V31z" fill="#F1B08D"/><path d="M61.434 32.965l-18.024-8.67a3.004 3.004 0 00-4.004 1.404L34 36.938V27a5.006 5.006 0 00-5-5h-4V6a4 4 0 10-8 0v16h-4a5.006 5.006 0 00-5 5v26a5.008 5.008 0 003.296 4.7 3 3 0 105.532.3h8.344a3 3 0 105.532-.3 5.017 5.017 0 003.17-3.591L47.997 60.9a1 1 0 001.334-.468L61.901 34.3a1 1 0 00-.468-1.335zM42.11 26c.15 0 .297.034.432.099l17.122 8.236-.867 1.802L41.676 27.9a1.002 1.002 0 01-.468-1.333v-.001a1 1 0 01.903-.567zM19 6a2 2 0 114 0v16h-4V6zm-4 53a1 1 0 11-2 0 1 1 0 012 0zm13 1a1 1 0 110-2 1 1 0 010 2zm1-4H13a3.003 3.003 0 01-3-3V27a3.003 3.003 0 013-3h4v5h2v-5h4v5h2v-5h4a3.003 3.003 0 013 3v14.096l-3.43 7.132a3 3 0 001.402 4.004l2.02.971A3.003 3.003 0 0129 56zm18.962 2.665L30.839 50.43a1 1 0 01-.467-1.334l9.61-19.981c.24.242.52.441.827.588l17.123 8.236-9.97 20.727z" fill="#F1B08D"/><path d="M48.053 35.406a7 7 0 103.274 9.343 7.008 7.008 0 00-3.274-9.343zm1.814 7.531l-1.792-.862c.4-1.106.597-2.275.58-3.45l-.005-.346a5.017 5.017 0 011.217 4.658zm-6.216 1.965l-.264.204-.005-.333a7.714 7.714 0 01.396-2.546l1.615.777a7.714 7.714 0 01-1.742 1.898zm.993-4.477a7.715 7.715 0 011.743-1.899l.263-.204.006.334a7.715 7.715 0 01-.396 2.546l-1.615-.777zm.383-3.71c.136 0 .272.007.409.018l-.273.212a9.72 9.72 0 00-2.333 2.607l-1.79-.862a5.017 5.017 0 013.987-1.975zm-4.858 3.776l1.794.863a9.718 9.718 0 00-.58 3.45l.005.35a5.01 5.01 0 01-1.218-4.663zm4.432 6.205l.274-.212a9.719 9.719 0 002.333-2.607l1.793.862a5.017 5.017 0 01-4.4 1.957zm-9.316 3.649l.866-1.802 9.01 4.33-.866 1.802-9.01-4.33zm9.922-34.552a3.125 3.125 0 00-4.414 0 1.123 1.123 0 01-1.586 0l-.25-.25a7.019 7.019 0 00-9.914 0 2.869 2.869 0 01-2.043.846v2a4.858 4.858 0 003.457-1.432 5.016 5.016 0 017.086 0l.25.25a3.125 3.125 0 004.414 0 1.122 1.122 0 011.586 0l1.843 1.843a20.167 20.167 0 0013.477 5.93c.43 1.667.705 3.37.821 5.088l1.996-.136a29.72 29.72 0 00-3.106-11.38l-1.788.897a27.894 27.894 0 011.465 3.49 18.176 18.176 0 01-11.45-5.303l-1.844-1.843z" fill="#F1B08D"/><path d="M36.479 6.853l16.656 10.18a2.992 2.992 0 003.686-.44l3.886-3.886a1 1 0 000-1.414l-2-2a1 1 0 00-1.262-.125L55 10.798l-4.566-3.044L52.8 4.6a1 1 0 00-.093-1.307l-1-1a1 1 0 00-1.154-.187l-5.51 2.754-1.85-1.11a4.993 4.993 0 00-6.108.751l-.792.792a1 1 0 00.186 1.56zm5.684-1.389l2.323 1.394a1 1 0 00.961.036l5.011-2.505L48.2 7.4a1.001 1.001 0 00.245 1.432l6 4a1 1 0 001.11 0l2.318-1.545.713.713-3.18 3.18a.997.997 0 01-1.228.146L38.608 5.81a2.995 2.995 0 013.556-.347z" fill="#F1B08D"/></svg>
